!!!OTL: A DIARNDL GEHT UM HOLZ IN WALD
!!!ARE: Europa, Mitteleuropa, Oesterreich, Steiermark
!!!SCT: E0073
!!!YEM: Copyright 1995, estate of Helmut Schaffrath.
**kern
*ICvox
*Ivox
*M3/4
*k[f#c#]
*D:
{8A
=1
8.f#
16f#
4.f#
8f#
=2
8dd
8cc#
4b
8r}
{8d
=3
8.c#
16b
4a
4e
=4
8f#
8dd
4a
8r}
{8f#
=5
8.a
16ff#
4.dd
8f#
=6
8dd
8cc#
4b
8r}
{8d
=7
8.c#
16b
4a
8g
8c#
=8
4d
2r}
=9
{4A
4c#
4e
=10
4a
4.gg
8cc#
=11
4dd
4.f#
8b
=12
2a
4r}
=13
{4cc#
4.g
8b
=14
2a
4r
=15
4dd
4.f#
8b
=16
2.a}
=17
{4A
4c#
4e
=18
4a
4.gg
8cc#
=19
4dd
4.f#
8b
=20
2a
4r}
=21
{4cc#
4.g
8b
=22
4a
4g
4e
=23
2.d
=24
4d
4.r}
==
!!!AGN: erzaehlendes Volks - Lied, Sage, Liebe, Ballade ?
!!!ONB: ESAC (Essen Associative Code) Database: ERK1
!!!AMT: simple triple
!!!AIN: vox
!!!EED: Helmut Schaffrath
!!!EEV: 1.0
*-
